X:1
T:Title
%%score { 1 | 2 }
L:1/8
M:2/4
K:A
V:1 treble nm="Grand Piano"
V:2 bass 
V:1
 z2 z[Q:1/4=94] [CE] | [CA][CA] [DF][CE] | [CA][CA] [EA]B | cc BA |[M:3/8] B3 |[M:1/8] E | %6
[M:2/4] [CA][CA] [DF][CE] | [CA][CA] [EA][FB] | cc B2 |[M:3/8] [CA]3 |[M:1/8] [CE] | %11
[M:2/4] [DF][CE] [CA]2 | [CE]3 E | FE B2 | B3 E | [CA][CA] [CA][DB] |[M:9/16] cd/-d/e-e/[Fd] | %17
[M:2/4] cc[Q:1/4=88] B2[Q:1/4=93][Q:1/4=91][Q:1/4=90][Q:1/4=87][Q:1/4=86][Q:1/4=84][Q:1/4=83][Q:1/4=82][Q:1/4=80][Q:1/4=79] | %18
[M:3/8][Q:1/4=77] [CA]3[Q:1/4=76][Q:1/4=75][Q:1/4=73][Q:1/4=72] |] %19
V:2
 z2 z [A,,A,] | [A,,A,][A,,A,] [A,,A,][A,,A,] | [A,,E,][A,,E,] [C,A,][E,G,E] | %3
 [A,E][A,E] [G,B,E][F,B,^D] |[M:3/8] [E,G,E]3 |[M:1/8] [E,G,D] | %6
[M:2/4] [A,,A,][A,,A,] [A,,A,][A,,A,] | [A,,E,][A,,E,] [C,A,][D,A,] | [E,A,E][E,A,E] [E,G,D]2 | %9
[M:3/8] [A,,A,]3 |[M:1/8] [A,,A,] |[M:2/4] [A,,A,][A,,A,] [A,,A,]2 | [A,,A,]3 [E,G,D] | %13
 [E,G,D][E,G,D] [E,G,D]2 | [E,G,D]3 [E,G,D] | [A,,A,][A,,A,] [A,,A,][A,,A,] | %16
[M:9/16] [A,E][A,B,E]/-[A,B,E]/[A,CE]-[A,CE]/[D,A,] |[M:2/4] [E,A,E][E,A,E] [E,G,D]2 | %18
[M:3/8] [A,,A,]3 |] %19

